X:408
T: MUENSTER ICH MUSS DICH VERLASSEN
N: E1600C
O: Europa, Mitteleuropa, Deutschland, Westfalen
R: Staende -, Handwerker -, Gesellen - Lied; Abschied, Wanderschaft
M: 3/4
L: 1/16
K: D
D2F2 | A4d4A2G2 | G2F2F4
E2F2 | G4G4F3E | E4z4
D2F2 | A4d4A2G2 | G2F2F4
E2F2 | G4B4A2G2 | G2F2F4
D2E2 | F4A4G2E2 | D4z4

@@@ Tune index: 5092
